common/svg/debug-icon.svg

<svg fill="none" height="20" viewBox="0 0 20 20" width="20" xmlns="http://www.w3.org/2000/svg"><g fill="#000"><path d="m7.6838 6.90262 2.78 2.7564-2.76322 2.73978-1.22982-1.2194 1.53335-1.52038-1.55013-1.537z"/><path d="m9.53615 7.07448 2.77995 2.7564 1.2298-1.2194-1.5501-1.53699 1.5333-1.52034-1.2298-1.2194z"/><path clip-rule="evenodd" d="m.833313 2.52893c0-.4762.389337-.86224.869617-.86224h16.59407c.4803 0 .8696.38604.8696.86224v11.63777c0 .4762-.353.8333-.8333.8333h-6.6667v1.6667h1.6667v1.6667h-6.66665v-1.6667h1.66666v-1.6667h-6.66666c-.48028 0-.833337-.3571-.833337-.8333zm1.666667 10.80447v-10.00005h15.00002v10.00005z" fill-rule="evenodd"/></g></svg>

<svg width="20" height="20" viewBox="0 0 20 20" fill="none" xmlns="http://www.w3.org/2000/svg">
<path d="M7.6838 6.90262L10.4638 9.65902L7.70058 12.3988L6.47076 11.1794L8.00411 9.65902L6.45398 8.12202L7.6838 6.90262Z" fill="black"/>
<path d="M9.53615 7.07448L12.3161 9.83088L13.5459 8.61148L11.9958 7.07449L13.5291 5.55415L12.2993 4.33475L9.53615 7.07448Z" fill="black"/>
<path fill-rule="evenodd" clip-rule="evenodd" d="M0.833313 2.52893C0.833313 2.05273 1.22265 1.66669 1.70293 1.66669H18.297C18.7773 1.66669 19.1666 2.05273 19.1666 2.52893V14.1667C19.1666 14.6429 18.8136 15 18.3333 15H11.6666V16.6667H13.3333V18.3334H6.66665V16.6667H8.33331V15H1.66665C1.18637 15 0.833313 14.6429 0.833313 14.1667V2.52893ZM2.49998 13.3334V3.33335H17.5V13.3334L2.49998 13.3334Z" fill="black"/>
</svg>
